static/card-icons/support.svg

<svg height="682.66669" viewBox="0 0 682.66669 682.66669" width="682.66669" xmlns="http://www.w3.org/2000/svg"><g style="fill:none;stroke:#000;stroke-width:30;stroke-linecap:round;stroke-linejoin:round;stroke-miterlimit:10"><path d="m0 0v-46.989s-3.759-93.288 86.072-93.288 86.073 93.288 86.073 93.288v46.989" transform="matrix(1.3333333 0 0 -1.3333333 226.57026100241 475.6226751761)"/><path d="m0 0 136.671-58.149c11.067-4.708 18.252-15.571 18.255-27.598l.002-7.545h-482l.001 7.544c.002 12.027 7.188 22.891 18.255 27.6l136.671 58.148" transform="matrix(1.3333333 0 0 -1.3333333 456.09638859759 538.27494027646)"/><path d="m0 0c-65.059 0-112.046 47.906-112.046 107v123.179c23.046 110.32 79.934 49.653 112.046 49.653s86.072 60.667 112.046-49.653v-123.179c0-59.094-46.987-107-112.046-107z" transform="matrix(1.3333333 0 0 -1.3333333 341.3333248 525.10720727232)"/><path d="m0 0h-40c-16.568 0-30 13.431-30 30v64.51c0 16.568 13.432 30 30 30h40z" transform="matrix(1.3333333 0 0 -1.3333333 191.93826186821 384.21494412796)"/><path d="m0 0h-40v124.51h40c16.569 0 30-13.432 30-30v-64.51c0-16.569-13.431-30-30-30z" transform="matrix(1.3333333 0 0 -1.3333333 544.06171973179 384.21494412796)"/><path d="m0 0-35.211-23.48c-11.501-7.668-25.013-11.761-38.836-11.761h-25.369" transform="matrix(1.3333333 0 0 -1.3333333 490.72838773179 384.21494412796)"/><path d="m0 0v5.189c0 79.231-33.461 143.461-143.461 143.461s-143.461-64.23-143.461-143.461v-5.189" transform="matrix(1.3333333 0 0 -1.3333333 532.61478668463 218.20174827829)"/></g></svg>

<?xml version="1.0" encoding="UTF-8" standalone="no"?>
<!-- Created with Inkscape (http://www.inkscape.org/) -->

<svg
   version="1.1"
   id="svg3243"
   xml:space="preserve"
   width="682.66669"
   height="682.66669"
   viewBox="0 0 682.66669 682.66669"
   xmlns="http://www.w3.org/2000/svg"
   xmlns:svg="http://www.w3.org/2000/svg"><defs
     id="defs3247"><clipPath
       clipPathUnits="userSpaceOnUse"
       id="clipPath3257"><path
         d="M 0,512 H 512 V 0 H 0 Z"
         id="path3255" /></clipPath></defs><g
     id="g3249"
     transform="matrix(1.3333333,0,0,-1.3333333,0,682.66667)"><g
       id="g3251"><g
         id="g3253"
         clipPath="url(#clipPath3257)"><g
           id="g3259"
           transform="translate(169.9277,155.283)"><path
             d="m 0,0 v -46.989 c 0,0 -3.759,-93.288 86.072,-93.288 89.831,0 86.073,93.288 86.073,93.288 V 0"
             style="fill:none;stroke:#000000;stroke-width:30;stroke-linecap:round;stroke-linejoin:round;stroke-miterlimit:10;stroke-dasharray:none;stroke-opacity:1"
             id="path3261" /></g><g
           id="g3263"
           transform="translate(342.0723,108.2938)"><path
             d="m 0,0 136.671,-58.149 c 11.067,-4.708 18.252,-15.571 18.255,-27.598 l 0.002,-7.545 h -482 l 10e-4,7.544 c 0.002,12.027 7.188,22.891 18.255,27.6 L -172.145,0"
             style="fill:none;stroke:#000000;stroke-width:30;stroke-linecap:round;stroke-linejoin:round;stroke-miterlimit:10;stroke-dasharray:none;stroke-opacity:1"
             id="path3265" /></g><g
           id="g3267"
           transform="translate(256,118.1696)"><path
             d="M 0,0 C -65.059,0 -112.046,47.906 -112.046,107 V 230.179 C -89,340.499 -32.112,279.832 0,279.832 c 32.112,0 86.072,60.667 112.046,-49.653 V 107 C 112.046,47.906 65.059,0 0,0 Z"
             style="fill:none;stroke:#000000;stroke-width:30;stroke-linecap:round;stroke-linejoin:round;stroke-miterlimit:10;stroke-dasharray:none;stroke-opacity:1"
             id="path3269" /></g><g
           id="g3271"
           transform="translate(143.9537,223.8388)"><path
             d="m 0,0 h -40 c -16.568,0 -30,13.431 -30,30 v 64.51 c 0,16.568 13.432,30 30,30 H 0 Z"
             style="fill:none;stroke:#000000;stroke-width:30;stroke-linecap:round;stroke-linejoin:round;stroke-miterlimit:10;stroke-dasharray:none;stroke-opacity:1"
             id="path3273" /></g><g
           id="g3275"
           transform="translate(408.0463,223.8388)"><path
             d="M 0,0 H -40 V 124.51 H 0 c 16.569,0 30,-13.432 30,-30 V 30 C 30,13.431 16.569,0 0,0 Z"
             style="fill:none;stroke:#000000;stroke-width:30;stroke-linecap:round;stroke-linejoin:round;stroke-miterlimit:10;stroke-dasharray:none;stroke-opacity:1"
             id="path3277" /></g><g
           id="g3279"
           transform="translate(368.0463,223.8388)"><path
             d="m 0,0 -35.211,-23.48 c -11.501,-7.668 -25.013,-11.761 -38.836,-11.761 h -25.369"
             style="fill:none;stroke:#000000;stroke-width:30;stroke-linecap:round;stroke-linejoin:round;stroke-miterlimit:10;stroke-dasharray:none;stroke-opacity:1"
             id="path3281" /></g><g
           id="g3283"
           transform="translate(399.4611,348.3487)"><path
             d="M 0,0 V 5.189 C 0,84.42 -33.461,148.65 -143.461,148.65 c -110,0 -143.461,-64.23 -143.461,-143.461 V 0"
             style="fill:none;stroke:#000000;stroke-width:30;stroke-linecap:round;stroke-linejoin:round;stroke-miterlimit:10;stroke-dasharray:none;stroke-opacity:1"
             id="path3285" /></g></g></g></g></svg>
